public/circuit.svg

<svg xmlns="http://www.w3.org/2000/svg" width="479" height="178" viewBox="-0.5 -0.5 479 178"><g stroke-width="2"><path d="M268.13 149.75H0" fill="none" stroke="gray" stroke-miterlimit="10" pointer-events="stroke"/><path d="M365.63 123.5H390M268.13 97.25h28.03m-28.03 52.5h28.03M280.31 71c13.07 32.49 13.07 72.51 0 105" fill="none" stroke="#666" stroke-miterlimit="10" pointer-events="all"/><path d="M316.88 71c21.28.98 40.29 21.44 48.75 52.5-8.46 31.06-27.47 51.52-48.75 52.5h-30.47c13.06-32.49 13.06-72.51 0-105Z" fill="#f5f5f5" stroke="#666" stroke-miterlimit="10" pointer-events="all"/><path d="M121.88 53.5H195v43.83l73.13-.08" fill="none" stroke="gray" stroke-miterlimit="10" pointer-events="stroke"/><path d="M0 53.5h24.38m78 0h19.5m-28.04 0L20.72 106V1Z" fill="#f5f5f5" stroke="#666" stroke-miterlimit="10" pointer-events="all"/><ellipse cx="98.72" cy="53.5" rx="4.875" ry="7" fill="#f5f5f5" stroke="#666" pointer-events="all"/><path d="M390 123.5h85.31" fill="none" stroke="gray" stroke-miterlimit="10" pointer-events="stroke"/></g></svg>

<?xml version="1.0" encoding="UTF-8"?>
<!-- Do not edit this file with editors other than diagrams.net -->
<!DOCTYPE svg PUBLIC "-//W3C//DTD SVG 1.1//EN" "http://www.w3.org/Graphics/SVG/1.1/DTD/svg11.dtd">
<svg xmlns="http://www.w3.org/2000/svg" xmlns:xlink="http://www.w3.org/1999/xlink" version="1.1" width="479px" height="178px" viewBox="-0.5 -0.5 479 178" content="&lt;mxfile host=&quot;Electron&quot; modified=&quot;2021-12-14T18:00:25.659Z&quot; agent=&quot;5.0 (Macintosh; Intel Mac OS X 10_15_7) AppleWebKit/537.36 (KHTML, like Gecko) draw.io/15.8.4 Chrome/91.0.4472.164 Electron/13.6.2 Safari/537.36&quot; etag=&quot;yVQHVlNeNdmOB3tZOfct&quot; version=&quot;15.8.4&quot; type=&quot;device&quot;&gt;&lt;diagram id=&quot;RVtiuf0op2tfMiAbsccT&quot; name=&quot;Page-1&quot;&gt;1VdNc5swEP01PpbBYBx8TOykPbgzmaYzSU8ZBdagVrCMWNu4v76SkUDEcSZJ3WmCD9a+Xa0+9ukhRuG8aD5LVuVfMQUxCvy0GYWLURCM40mo/jSyM8gk8Fskkzw1WA/c8N9gQBu25inUg0BCFMSrIZhgWUJCA4xJidth2ArFcNSKZXAA3CRMHKK3PKXcoFPf7x1fgGe5GXpmHQWzwQaoc5bi1oHCy1E4l4jUtopmDkLvnt2Xtt/VEW83MQklvaTDebjyF9+zRe2LJcy+MWK31afIzI12dsGQqvUbEyXlmGHJxGWPXkhclynorL6y+pglYqXAsQJ/AtHOFJOtCRWUUyGMFxpOd6a7bv/Qbe8sMuaicXyLnWNcg+QFEEiLlem5rrEySyyhRa64EMZfk8RfMEeBcr+4MPb1r/PYiqpaXLQboVd/dH8NVONaJvDMpgZdddW5AFQzljvVT4JgxDfD/MzwM+viuq7XyNXIgW8Ok+WRPUnT2DubzPrnbJiQmMyATI6eFqrhTKqH9mR5BXGCdrQNE2uzoAMmbUASVydpyR5AXGPNiWOpXA9IhIUugj0RuiIpq/OOVEzwTIcmau91tV322LTnJoY063SuSo9bNJlWIg+EUgOp4zyBGU/uM0ZQO21N3QokM5NqNEWeoMVKsckh0CrSP41jSQ7ePk9Rbrp/OoLp2UPzPMUOqWMpEMfeOIgGPJgZWmwddQrGXjzgRhuSOzo19qPjBByQ5bXMmPxPSRkPJOUtiqK24M412kxBZO0+197audbb9Mml23HFOqE+mXdyqxD/UMf+ikbhxxQYXu5PuLwPPoCcDN8owXtTkunHVpLT3U1Oq0rv/qYzmUVe+Pg9p74cvEdEe/MVR5n9vbsN7z9fwss/&lt;/diagram&gt;&lt;/mxfile&gt;"><defs/><g><path d="M 268.13 149.75 L 0 149.75" fill="none" stroke="#808080" stroke-width="2" stroke-miterlimit="10" pointer-events="stroke"/><path d="M 365.63 123.5 L 390 123.5 M 268.13 97.25 L 296.16 97.25 M 268.13 149.75 L 296.16 149.75" fill="none" stroke="#666666" stroke-width="2" stroke-miterlimit="10" pointer-events="all"/><path d="M 280.31 71 C 293.38 103.49 293.38 143.51 280.31 176" fill="none" stroke="#666666" stroke-width="2" stroke-miterlimit="10" pointer-events="all"/><path d="M 316.88 71 C 338.16 71.98 357.17 92.44 365.63 123.5 C 357.17 154.56 338.16 175.02 316.88 176 L 286.41 176 C 299.47 143.51 299.47 103.49 286.41 71 Z" fill="#f5f5f5" stroke="#666666" stroke-width="2" stroke-miterlimit="10" pointer-events="all"/><path d="M 121.88 53.5 L 195 53.5 L 195 97.33 L 268.13 97.25" fill="none" stroke="#808080" stroke-width="2" stroke-miterlimit="10" pointer-events="stroke"/><path d="M 0 53.5 L 24.38 53.5" fill="#f5f5f5" stroke="#666666" stroke-width="2" stroke-miterlimit="10" pointer-events="all"/><path d="M 102.38 53.5 L 121.88 53.5" fill="#f5f5f5" stroke="#666666" stroke-width="2" stroke-miterlimit="10" pointer-events="all"/><path d="M 93.84 53.5 L 20.72 106 L 20.72 1 Z" fill="#f5f5f5" stroke="#666666" stroke-width="2" stroke-miterlimit="10" pointer-events="all"/><ellipse cx="98.72" cy="53.5" rx="4.874999999999999" ry="7" fill="#f5f5f5" stroke="#666666" stroke-width="2" pointer-events="all"/><path d="M 390 123.5 L 475.31 123.5" fill="none" stroke="#808080" stroke-width="2" stroke-miterlimit="10" pointer-events="stroke"/></g></svg>
